styles/4/Numix/22/places/grey-folder-music.svg

<?xml version="1.0" encoding="UTF-8" standalone="no"?>
<!-- Created with Inkscape (http://www.inkscape.org/) -->

<svg
   xmlns:dc="http://purl.org/dc/elements/1.1/"
   xmlns:cc="http://creativecommons.org/ns#"
   xmlns:rdf="http://www.w3.org/1999/02/22-rdf-syntax-ns#"
   xmlns:svg="http://www.w3.org/2000/svg"
   xmlns="http://www.w3.org/2000/svg"
   xmlns:sodipodi="http://sodipodi.sourceforge.net/DTD/sodipodi-0.dtd"
   xmlns:inkscape="http://www.inkscape.org/namespaces/inkscape"
   width="22"
   height="22"
   id="svg2"
   version="1.1"
   inkscape:version="0.91 r"
   sodipodi:docname="grey-folder-music.svg"
   inkscape:export-filename="/media/Data/Main/Visuals/Icons/Numix/Desktop/repos/numix-wiki/Gjorgi/Numix-folders/48/New/folder-144.png"
   inkscape:export-xdpi="270"
   inkscape:export-ydpi="270">
  <defs
     id="defs4" />
  <sodipodi:namedview
     id="base"
     pagecolor="#ffffff"
     bordercolor="#666666"
     borderopacity="1.0"
     inkscape:pageopacity="0.0"
     inkscape:pageshadow="2"
     inkscape:zoom="19.700001"
     inkscape:cx="2.8264428"
     inkscape:cy="9.9985952"
     inkscape:document-units="px"
     inkscape:current-layer="layer1"
     showgrid="true"
     inkscape:window-width="1280"
     inkscape:window-height="998"
     inkscape:window-x="0"
     inkscape:window-y="0"
     inkscape:window-maximized="1"
     showguides="true"
     inkscape:guide-bbox="true">
    <inkscape:grid
       type="xygrid"
       id="grid2985"
       empspacing="5"
       visible="true"
       enabled="true"
       snapvisiblegridlinesonly="true" />
  </sodipodi:namedview>
  <metadata
     id="metadata7">
    <rdf:RDF>
      <cc:Work
         rdf:about="">
        <dc:format>image/svg+xml</dc:format>
        <dc:type
           rdf:resource="http://purl.org/dc/dcmitype/StillImage" />
        <dc:title />
      </cc:Work>
    </rdf:RDF>
  </metadata>
  <g
     inkscape:label="Layer 1"
     inkscape:groupmode="layer"
     id="layer1"
     transform="translate(0,-1030.3622)">
    <path
       inkscape:connector-curvature="0"
       id="path2998"
       d="m 2,1032.3622 17,0 c 1,0 2,1 2,2 l 0,4 c 0,1.108 -0.446,2 -1,2 l -18,0 c -0.554,0 -1,-0.892 -1,-2 l 0,-6 z"
       style="fill:#757575;fill-opacity:1;stroke:none"
       sodipodi:nodetypes="csssssscc" />
    <path
       style="opacity:0.02999998;fill:#000000;fill-opacity:1;stroke:none"
       d="m 1,1034.3622 0,5 20,0 0,-5 z"
       id="path3807"
       inkscape:connector-curvature="0" />
    <rect
       style="fill:#bdbdbd;fill-opacity:1;stroke:none"
       id="rect2990"
       width="22"
       height="17"
       x="0"
       y="1035.3622"
       rx="2"
       ry="2" />
    <path
       sodipodi:nodetypes="csssscc"
       inkscape:connector-curvature="0"
       id="path3000"
       d="m 1,1033.3622 0,-1 c 0,-1 0,-2 1,-2 l 4,0 c 1,0 1,1 1,2 l 0,1 z"
       style="fill:#757575;fill-opacity:1;stroke:none" />
    <path
       style="opacity:0.05;fill:#000000;fill-opacity:1;stroke:none"
       d="m 7,1032.3622 0,1 1,0 11,0 c 1,0 2,1 2,2 l 0,-1 c 0,-1 -1,-2 -2,-2 l -11,0 z"
       id="path3002"
       inkscape:connector-curvature="0"
       sodipodi:nodetypes="cccscsscc" />
    <path
       style="opacity:0.05;fill:#000000;fill-opacity:1;stroke:none"
       d="m 2,1030.3622 c -1,0 -1,1 -1,2 l 0,0.25 c 0.046875,-0.7031 0.25,-1.25 1,-1.25 l 4,0 c 0.75,0 0.953125,0.5469 1,1.25 l 0,-0.25 c 0,-1 0,-2 -1,-2 l -4,0 z"
       id="path3780"
       inkscape:connector-curvature="0" />
    <path
       style="opacity:0.1;fill:#ffffff;fill-opacity:1;stroke:none"
       d="m 2,1035.3622 c -0.7419013,0 -1.3734731,0.4031 -1.71875,1 l 21.4375,0 c -0.345277,-0.5969 -0.976849,-1 -1.71875,-1 l -18,0 z"
       id="rect2991"
       inkscape:connector-curvature="0" />
    <path
       style="opacity:1.0;fill:#7f7f7f;fill-opacity:1;stroke:none"
       d="M 9.5 10 C 9.223 10 9 10.223 9 10.5 L 9 11.5 L 9 15.09375 C 8.845681 15.03975 8.672589 15 8.5 15 C 7.6715729 15 7 15.6716 7 16.5 C 7 17.3284 7.6715729 18 8.5 18 C 9.265885 18 9.8777166 17.4288 9.96875 16.6875 C 9.993984 16.6275 10 16.5693 10 16.5 L 10 12 L 14 12 L 14 15.09375 C 13.845681 15.03975 13.672589 15 13.5 15 C 12.671573 15 12 15.6716 12 16.5 C 12 17.3284 12.671573 18 13.5 18 C 14.265885 18 14.877717 17.4288 14.96875 16.6875 C 14.99398 16.6275 15 16.5693 15 16.5 L 15 11.5 L 15 10.5 C 15 10.223 14.777 10 14.5 10 L 9.5 10 z "
       transform="translate(0,1030.3622)"
       id="path3003-7" />
  </g>
</svg>

<!-- Created with Inkscape (http://www.inkscape.org/) -->
<svg xmlns="http://www.w3.org/2000/svg" viewBox="0 0 22 22">
 <g transform="translate(0,-1030.3622)">
  <path d="m 2 1032.36 17 0 c 1 0 2 1 2 2 l 0 4 c 0 1.108 -0.446 2 -1 2 l -18 0 c -0.554 0 -1 -0.892 -1 -2 l 0 -6 z" style="fill:#757575;fill-opacity:1;stroke:none"/>
  <path d="m 1 1034.36 0 5 20 0 0 -5 z" style="fill:#000;opacity:0.03;fill-opacity:1;stroke:none"/>
  <rect width="22" height="17" y="1035.36" rx="2" style="fill:#bdbdbd;fill-opacity:1;stroke:none"/>
  <path d="m 1 1033.36 0 -1 c 0 -1 0 -2 1 -2 l 4 0 c 1 0 1 1 1 2 l 0 1 z" style="fill:#757575;fill-opacity:1;stroke:none"/>
  <path d="m 7 1032.36 0 1 1 0 11 0 c 1 0 2 1 2 2 l 0 -1 c 0 -1 -1 -2 -2 -2 l -11 0 z" style="fill:#000;opacity:0.05;fill-opacity:1;stroke:none"/>
  <path d="m 2 1030.36 c -1 0 -1 1 -1 2 l 0 0.25 c 0.047 -0.703 0.25 -1.25 1 -1.25 l 4 0 c 0.75 0 0.953 0.547 1 1.25 l 0 -0.25 c 0 -1 0 -2 -1 -2 l -4 0 z" style="fill:#000;opacity:0.05;fill-opacity:1;stroke:none"/>
  <path d="m 2 1035.36 c -0.742 0 -1.373 0.403 -1.719 1 l 21.438 0 c -0.345 -0.597 -0.977 -1 -1.719 -1 l -18 0 z" style="fill:#fff;opacity:0.1;fill-opacity:1;stroke:none"/>
  <path d="m 9.5 10 c -0.277 0 -0.5 0.223 -0.5 0.5 l 0 1 l 0 3.594 c -0.154 -0.054 -0.327 -0.094 -0.5 -0.094 c -0.828 0 -1.5 0.672 -1.5 1.5 c 0 0.828 0.672 1.5 1.5 1.5 c 0.766 0 1.378 -0.571 1.469 -1.313 c 0.025 -0.06 0.031 -0.118 0.031 -0.188 l 0 -4.5 l 4 0 l 0 3.094 c -0.154 -0.054 -0.327 -0.094 -0.5 -0.094 c -0.828 0 -1.5 0.672 -1.5 1.5 c 0 0.828 0.672 1.5 1.5 1.5 c 0.766 0 1.378 -0.571 1.469 -1.313 c 0.025 -0.06 0.031 -0.118 0.031 -0.188 l 0 -5 l 0 -1 c 0 -0.277 -0.223 -0.5 -0.5 -0.5 l -5 0 z" transform="translate(0,1030.3622)" style="fill:#7f7f7f;opacity:1;fill-opacity:1;stroke:none"/>
 </g>
</svg>
